figures/mundraum.svg

<?xml version="1.0" encoding="UTF-8" standalone="no"?>
<!-- Created with Inkscape (http://www.inkscape.org/) -->

<svg
   xmlns:dc="http://purl.org/dc/elements/1.1/"
   xmlns:cc="http://creativecommons.org/ns#"
   xmlns:rdf="http://www.w3.org/1999/02/22-rdf-syntax-ns#"
   xmlns:svg="http://www.w3.org/2000/svg"
   xmlns="http://www.w3.org/2000/svg"
   xmlns:sodipodi="http://sodipodi.sourceforge.net/DTD/sodipodi-0.dtd"
   xmlns:inkscape="http://www.inkscape.org/namespaces/inkscape"
   width="744.09448819"
   height="1052.3622047"
   id="svg2"
   version="1.1"
   inkscape:version="0.91 r13725"
   sodipodi:docname="mundraum.svg">
  <defs
     id="defs4" />
  <sodipodi:namedview
     id="base"
     pagecolor="#ffffff"
     bordercolor="#666666"
     borderopacity="1.0"
     inkscape:pageopacity="0.0"
     inkscape:pageshadow="2"
     inkscape:zoom="0.5"
     inkscape:cx="372.04724"
     inkscape:cy="526.18109"
     inkscape:document-units="px"
     inkscape:current-layer="layer1"
     showgrid="false"
     inkscape:window-width="1440"
     inkscape:window-height="827"
     inkscape:window-x="0"
     inkscape:window-y="1"
     inkscape:window-maximized="1"
     showguides="false" />
  <metadata
     id="metadata7">
    <rdf:RDF>
      <cc:Work
         rdf:about="">
        <dc:format>image/svg+xml</dc:format>
        <dc:type
           rdf:resource="http://purl.org/dc/dcmitype/StillImage" />
        <dc:title />
      </cc:Work>
    </rdf:RDF>
  </metadata>
  <g
     inkscape:label="Layer 1"
     inkscape:groupmode="layer"
     id="layer1">
    <path
       style="fill:none;stroke:#000000;stroke-width:3;stroke-linecap:round;stroke-linejoin:round;stroke-miterlimit:3.9333334;stroke-dasharray:none;stroke-opacity:1"
       d="m 353.56538,596.37938 c 6.02177,-34.46374 -1.17125,-54.86554 -5.92549,-70.12056 -5.00845,-16.07071 -11.81612,-19.86984 -35.90264,-24.28138 -34.55104,-3.48883 -72.27242,-0.4623 -63.94585,12.52641 20.16665,9.58662 17.02328,35.11631 8.05711,32.44919 -7.52673,-0.24656 -14.8396,-17.03523 -14.8396,-17.03523 0,0 -6.19815,-13.13046 -7.21375,-15.94891 l -1.73952,32.44248 c 0.61854,-3.93498 -6.74562,-27.76932 -15.18315,-29.5104 -26.80215,-4.78953 -13.34811,18.22971 -13.34811,18.22971 17.60544,32.08926 -6.2943,47.13987 -2.59074,64.39725 7.91802,27.26112 115.30527,9.37182 95.08059,79.73889"
       id="path3789"
       inkscape:connector-curvature="0"
       sodipodi:nodetypes="cscccccccccc"
       inkscape:export-filename="/home/user/workingcopies/deskriptivegrammatik/grafiken/mundraum.ps.png"
       inkscape:export-xdpi="96"
       inkscape:export-ydpi="96" />
    <path
       style="fill:none;stroke:#000000;stroke-width:3;stroke-linecap:round;stroke-linejoin:round;stroke-miterlimit:3.9333334;stroke-dasharray:none;stroke-opacity:1"
       d="m 224.04087,358.22762 c -9.84897,25.75887 -64.39722,72.73098 -61.36677,89.3985 0.29439,5.4645 11.46705,7.78832 17.09461,9.31767 m 10.42135,5.07636 c 6.88946,4.28761 14.7767,13.82213 7.52371,32.26017 -0.31938,10.63917 23.2521,16.75326 22.72287,-13.25823 4.73508,0 12.14355,22.93479 12.14355,22.93479 0,0 3.81473,-18.25849 6.84518,-17.87968 6.70377,15.63435 62.44525,-25.11245 96.37648,-21.13574 21.00594,5.17386 30.83075,31.98048 37.65819,28.78485 5.50243,-56.23719 -85.8501,-80.90405 -182.90079,-32.75916 m -11.12466,-3.99433 c 29.99697,-43.13841 45.49851,-78.60395 81.20613,-86.09477 35.70759,-7.49082 100.26264,11.46201 125.11383,19.45536 47.55468,13.2507 9.75627,143.01147 -2.40717,199.5942"
       id="path3803"
       inkscape:connector-curvature="0"
       sodipodi:nodetypes="ccccccccccccccc"
       inkscape:export-filename="/home/user/workingcopies/deskriptivegrammatik/grafiken/mundraum.ps.png"
       inkscape:export-xdpi="96"
       inkscape:export-ydpi="96" />
    <path
       style="fill:none;stroke:#000000;stroke-width:2;stroke-linecap:butt;stroke-linejoin:miter;stroke-miterlimit:4;stroke-dasharray:none;stroke-dashoffset:0;stroke-opacity:1"
       d="m 378.56049,494.37318 59.85387,39.959"
       id="path3890"
       inkscape:connector-curvature="0"
       sodipodi:nodetypes="cc"
       inkscape:export-filename="/home/user/workingcopies/deskriptivegrammatik/grafiken/mundraum.ps.png"
       inkscape:export-xdpi="96"
       inkscape:export-ydpi="96" />
    <path
       style="fill:none;stroke:#000000;stroke-width:2;stroke-linecap:butt;stroke-linejoin:miter;stroke-miterlimit:4;stroke-dasharray:none;stroke-dashoffset:0;stroke-opacity:1"
       d="m 356.32983,469.69189 82.2416,-33.75828"
       id="path3892"
       inkscape:connector-curvature="0"
       sodipodi:nodetypes="cc"
       inkscape:export-filename="/home/user/workingcopies/deskriptivegrammatik/grafiken/mundraum.ps.png"
       inkscape:export-xdpi="96"
       inkscape:export-ydpi="96" />
    <path
       style="fill:none;stroke:#000000;stroke-width:2;stroke-linecap:butt;stroke-linejoin:miter;stroke-miterlimit:4;stroke-dasharray:none;stroke-dashoffset:0;stroke-opacity:1"
       d="M 291.78793,467.34681 430.91201,347.65501"
       id="path3894"
       inkscape:connector-curvature="0"
       sodipodi:nodetypes="cc"
       inkscape:export-filename="/home/user/workingcopies/deskriptivegrammatik/grafiken/mundraum.ps.png"
       inkscape:export-xdpi="96"
       inkscape:export-ydpi="96" />
    <path
       style="fill:none;stroke:#000000;stroke-width:2;stroke-linecap:butt;stroke-linejoin:miter;stroke-miterlimit:4;stroke-dasharray:none;stroke-dashoffset:0;stroke-opacity:1"
       d="m 226.04394,502.4831 -90.92036,40.71429"
       id="path3896"
       inkscape:connector-curvature="0"
       sodipodi:nodetypes="cc"
       inkscape:export-filename="/home/user/workingcopies/deskriptivegrammatik/grafiken/mundraum.ps.png"
       inkscape:export-xdpi="96"
       inkscape:export-ydpi="96" />
    <path
       style="fill:none;stroke:#000000;stroke-width:2;stroke-linecap:butt;stroke-linejoin:miter;stroke-miterlimit:4;stroke-dasharray:none;stroke-dashoffset:0;stroke-opacity:1"
       d="M 192.86808,492.95554 130.79659,468.03621"
       id="path3900"
       inkscape:connector-curvature="0"
       sodipodi:nodetypes="cc"
       inkscape:export-filename="/home/user/workingcopies/deskriptivegrammatik/grafiken/mundraum.ps.png"
       inkscape:export-xdpi="96"
       inkscape:export-ydpi="96" />
    <path
       style="fill:none;stroke:#000000;stroke-width:2;stroke-linecap:butt;stroke-linejoin:miter;stroke-miterlimit:4;stroke-dasharray:none;stroke-dashoffset:0;stroke-opacity:1"
       d="m 273.06175,507.75143 70.45352,130.17625"
       id="path3904"
       inkscape:connector-curvature="0"
       sodipodi:nodetypes="cc"
       inkscape:export-filename="/home/user/workingcopies/deskriptivegrammatik/grafiken/mundraum.ps.png"
       inkscape:export-xdpi="96"
       inkscape:export-ydpi="96" />
    <path
       style="fill:none;stroke:#000000;stroke-width:2;stroke-linecap:butt;stroke-linejoin:miter;stroke-miterlimit:4;stroke-dasharray:none;stroke-dashoffset:0;stroke-opacity:1"
       d="M 247.24944,484.4958 245.76298,329.58492"
       id="path3906"
       inkscape:connector-curvature="0"
       sodipodi:nodetypes="cc"
       inkscape:export-filename="/home/user/workingcopies/deskriptivegrammatik/grafiken/mundraum.ps.png"
       inkscape:export-xdpi="96"
       inkscape:export-ydpi="96" />
    <text
       xml:space="preserve"
       style="font-style:normal;font-variant:normal;font-weight:normal;font-stretch:normal;font-size:24px;line-height:100%;font-family:Sans;-inkscape-font-specification:Sans;text-align:start;letter-spacing:0px;word-spacing:0px;writing-mode:lr-tb;text-anchor:start;fill:#000000;fill-opacity:1;stroke:none"
       x="147.7467"
       y="326.61072"
       id="text3908"
       sodipodi:linespacing="100%"
       inkscape:export-filename="/home/user/workingcopies/deskriptivegrammatik/grafiken/mundraum.ps.png"
       inkscape:export-xdpi="96"
       inkscape:export-ydpi="96"><tspan
         sodipodi:role="line"
         x="147.7467"
         y="326.61072"
         id="tspan3912"
         style="font-style:normal;font-variant:normal;font-weight:normal;font-stretch:normal;font-size:24px;line-height:100%;font-family:'Linux Libertine O';-inkscape-font-specification:'Linux Libertine O, Normal';text-align:start;writing-mode:lr-tb;text-anchor:start">Zahndamm</tspan></text>
    <text
       xml:space="preserve"
       style="font-style:normal;font-variant:normal;font-weight:normal;font-stretch:normal;font-size:24px;line-height:100%;font-family:Sans;-inkscape-font-specification:Sans;text-align:start;letter-spacing:0px;word-spacing:0px;writing-mode:lr-tb;text-anchor:start;fill:#000000;fill-opacity:1;stroke:none"
       x="420.80652"
       y="343.6535"
       id="text3914"
       sodipodi:linespacing="100%"
       inkscape:export-filename="/home/user/workingcopies/deskriptivegrammatik/grafiken/mundraum.ps.png"
       inkscape:export-xdpi="96"
       inkscape:export-ydpi="96"><tspan
         sodipodi:role="line"
         x="420.80652"
         y="343.6535"
         id="tspan3918"
         style="font-style:normal;font-variant:normal;font-weight:normal;font-stretch:normal;font-size:24px;line-height:100%;font-family:'Linux Libertine O';-inkscape-font-specification:'Linux Libertine O, Normal';text-align:start;writing-mode:lr-tb;text-anchor:start">harter Gaumen</tspan></text>
    <text
       xml:space="preserve"
       style="font-style:normal;font-variant:normal;font-weight:normal;font-stretch:normal;font-size:24px;line-height:100%;font-family:Sans;-inkscape-font-specification:Sans;text-align:start;letter-spacing:0px;word-spacing:0px;writing-mode:lr-tb;text-anchor:start;fill:#000000;fill-opacity:1;stroke:none"
       x="432.08871"
       y="430.44998"
       id="text3914-2"
       sodipodi:linespacing="100%"
       inkscape:export-filename="/home/user/workingcopies/deskriptivegrammatik/grafiken/mundraum.ps.png"
       inkscape:export-xdpi="96"
       inkscape:export-ydpi="96"><tspan
         sodipodi:role="line"
         x="432.08871"
         y="430.44998"
         id="tspan3918-1"
         style="font-style:normal;font-variant:normal;font-weight:normal;font-stretch:normal;font-size:24px;line-height:100%;font-family:'Linux Libertine O';-inkscape-font-specification:'Linux Libertine O, Normal';text-align:start;writing-mode:lr-tb;text-anchor:start">Gaumensegel</tspan></text>
    <text
       xml:space="preserve"
       style="font-style:normal;font-variant:normal;font-weight:normal;font-stretch:normal;font-size:24px;line-height:100%;font-family:Sans;-inkscape-font-specification:Sans;text-align:start;letter-spacing:0px;word-spacing:0px;writing-mode:lr-tb;text-anchor:start;fill:#000000;fill-opacity:1;stroke:none"
       x="430.6778"
       y="555.62463"
       id="text3914-2-4"
       sodipodi:linespacing="100%"
       inkscape:export-filename="/home/user/workingcopies/deskriptivegrammatik/grafiken/mundraum.ps.png"
       inkscape:export-xdpi="96"
       inkscape:export-ydpi="96"><tspan
         sodipodi:role="line"
         x="430.6778"
         y="555.62463"
         id="tspan3918-1-2"
         style="font-style:normal;font-variant:normal;font-weight:normal;font-stretch:normal;font-size:24px;line-height:100%;font-family:'Linux Libertine O';-inkscape-font-specification:'Linux Libertine O, Normal';text-align:start;writing-mode:lr-tb;text-anchor:start">Zäpfchen</tspan></text>
    <text
       xml:space="preserve"
       style="font-style:normal;font-variant:normal;font-weight:normal;font-stretch:normal;font-size:24px;line-height:100%;font-family:Sans;-inkscape-font-specification:Sans;text-align:start;letter-spacing:0px;word-spacing:0px;writing-mode:lr-tb;text-anchor:start;fill:#000000;fill-opacity:1;stroke:none"
       x="339.57324"
       y="659.22607"
       id="text3914-2-4-4"
       sodipodi:linespacing="100%"
       inkscape:export-filename="/home/user/workingcopies/deskriptivegrammatik/grafiken/mundraum.ps.png"
       inkscape:export-xdpi="96"
       inkscape:export-ydpi="96"><tspan
         sodipodi:role="line"
         x="339.57324"
         y="659.22607"
         id="tspan3918-1-2-8"
         style="font-style:normal;font-variant:normal;font-weight:normal;font-stretch:normal;font-size:24px;line-height:100%;font-family:'Linux Libertine O';-inkscape-font-specification:'Linux Libertine O, Normal';text-align:start;writing-mode:lr-tb;text-anchor:start">Zunge</tspan></text>
    <text
       xml:space="preserve"
       style="font-style:normal;font-variant:normal;font-weight:normal;font-stretch:normal;font-size:24px;line-height:100%;font-family:Sans;-inkscape-font-specification:Sans;text-align:start;letter-spacing:0px;word-spacing:0px;writing-mode:lr-tb;text-anchor:start;fill:#000000;fill-opacity:1;stroke:none"
       x="82.245163"
       y="560.14746"
       id="text3914-2-4-7"
       sodipodi:linespacing="100%"
       inkscape:export-filename="/home/user/workingcopies/deskriptivegrammatik/grafiken/mundraum.ps.png"
       inkscape:export-xdpi="96"
       inkscape:export-ydpi="96"><tspan
         sodipodi:role="line"
         x="82.245163"
         y="560.14746"
         id="tspan3918-1-2-7"
         style="font-style:normal;font-variant:normal;font-weight:normal;font-stretch:normal;font-size:24px;line-height:100%;font-family:'Linux Libertine O';-inkscape-font-specification:'Linux Libertine O, Normal';text-align:start;writing-mode:lr-tb;text-anchor:start">Zähne</tspan></text>
    <text
       xml:space="preserve"
       style="font-style:normal;font-variant:normal;font-weight:normal;font-stretch:normal;font-size:24px;line-height:100%;font-family:Sans;-inkscape-font-specification:Sans;text-align:start;letter-spacing:0px;word-spacing:0px;writing-mode:lr-tb;text-anchor:start;fill:#000000;fill-opacity:1;stroke:none"
       x="68.41835"
       y="463.216"
       id="text3914-2-4-2"
       sodipodi:linespacing="100%"
       inkscape:export-filename="/home/user/workingcopies/deskriptivegrammatik/grafiken/mundraum.ps.png"
       inkscape:export-xdpi="96"
       inkscape:export-ydpi="96"><tspan
         sodipodi:role="line"
         x="68.41835"
         y="463.216"
         id="tspan3918-1-2-3"
         style="font-style:normal;font-variant:normal;font-weight:normal;font-stretch:normal;font-size:24px;line-height:100%;font-family:'Linux Libertine O';-inkscape-font-specification:'Linux Libertine O, Normal';text-align:start;writing-mode:lr-tb;text-anchor:start">Lippen</tspan></text>
    <text
       xml:space="preserve"
       style="font-style:normal;font-weight:normal;font-size:40px;line-height:125%;font-family:sans-serif;letter-spacing:0px;word-spacing:0px;fill:#000000;fill-opacity:1;stroke:none;stroke-width:1px;stroke-linecap:butt;stroke-linejoin:miter;stroke-opacity:1"
       x="381.20822"
       y="542.40521"
       id="text3376"
       sodipodi:linespacing="125%"><tspan
         sodipodi:role="line"
         id="tspan3378"
         x="381.20822"
         y="542.40521" /></text>
    <path
       style="fill:none;stroke:#000000;stroke-width:2;stroke-linecap:butt;stroke-linejoin:miter;stroke-miterlimit:4;stroke-dasharray:none;stroke-dashoffset:0;stroke-opacity:1"
       d="m 271.3035,415.41692 25.26557,-75.26281"
       id="path3906-7"
       inkscape:connector-curvature="0"
       sodipodi:nodetypes="cc"
       inkscape:export-filename="/home/user/workingcopies/deskriptivegrammatik/grafiken/mundraum.ps.png"
       inkscape:export-xdpi="96"
       inkscape:export-ydpi="96" />
    <text
       xml:space="preserve"
       style="font-style:normal;font-variant:normal;font-weight:normal;font-stretch:normal;font-size:24px;line-height:100%;font-family:Sans;-inkscape-font-specification:Sans;text-align:start;letter-spacing:0px;word-spacing:0px;writing-mode:lr-tb;text-anchor:start;fill:#000000;fill-opacity:1;stroke:none"
       x="288.18787"
       y="335.24646"
       id="text3908-6"
       sodipodi:linespacing="100%"
       inkscape:export-filename="/home/user/workingcopies/deskriptivegrammatik/grafiken/mundraum.ps.png"
       inkscape:export-xdpi="96"
       inkscape:export-ydpi="96"><tspan
         sodipodi:role="line"
         x="288.18787"
         y="335.24646"
         id="tspan3912-3"
         style="font-style:normal;font-variant:normal;font-weight:normal;font-stretch:normal;font-size:24px;line-height:100%;font-family:'Linux Libertine O';-inkscape-font-specification:'Linux Libertine O, Normal';text-align:start;writing-mode:lr-tb;text-anchor:start">Nasenhöhle</tspan></text>
  </g>
</svg>

<?xml version="1.0" encoding="UTF-8" standalone="no"?>
<!DOCTYPE svg PUBLIC "-//W3C//DTD SVG 1.1//EN" "http://www.w3.org/Graphics/SVG/1.1/DTD/svg11.dtd">
<svg width="100%" height="100%" viewBox="0 0 745 1053" version="1.1" xmlns="http://www.w3.org/2000/svg" xmlns:xlink="http://www.w3.org/1999/xlink" xml:space="preserve" xmlns:serif="http://www.serif.com/" style="fill-rule:evenodd;clip-rule:evenodd;stroke-linecap:round;stroke-linejoin:round;stroke-miterlimit:3.93333;">
    <g id="Layer-1" serif:id="Layer 1">
        <path id="path3789" d="M353.565,596.379C359.587,561.916 352.394,541.514 347.64,526.259C342.631,510.188 335.824,506.389 311.737,501.977C277.186,498.489 239.465,501.515 247.791,514.504C267.958,524.09 264.815,549.62 255.849,546.953C248.322,546.706 241.009,529.918 241.009,529.918C241.009,529.918 234.811,516.787 233.795,513.969L232.056,546.411C232.674,542.476 225.31,518.642 216.872,516.901C190.07,512.111 203.524,535.131 203.524,535.131C221.13,567.22 197.23,582.271 200.934,599.528C208.852,626.789 316.239,608.9 296.014,679.267" style="fill:none;stroke:black;stroke-width:3px;"/>
        <path id="path3803" d="M224.041,358.228C214.192,383.986 159.644,430.959 162.674,447.626C162.968,453.091 174.141,455.414 179.769,456.944M190.19,462.02C197.08,466.308 204.967,475.842 197.714,494.28C197.394,504.919 220.966,511.034 220.437,481.022C225.172,481.022 232.58,503.957 232.58,503.957C232.58,503.957 236.395,485.698 239.425,486.077C246.129,501.712 301.871,460.965 335.802,464.941C356.808,470.115 366.633,496.922 373.46,493.726C378.962,437.489 287.61,412.822 190.559,460.967M179.435,456.973C209.432,413.834 224.933,378.369 260.641,370.878C296.348,363.387 360.903,382.34 385.755,390.333C433.309,403.584 395.511,533.345 383.347,589.928" style="fill:none;stroke:black;stroke-width:3px;"/>
        <path id="path3890" d="M378.56,494.373L447.699,523.162" style="fill:none;stroke:black;stroke-width:2px;stroke-linecap:butt;stroke-linejoin:miter;stroke-miterlimit:4;"/>
        <path id="path3892" d="M356.33,469.692L438.498,421.621" style="fill:none;stroke:black;stroke-width:2px;stroke-linecap:butt;stroke-linejoin:miter;stroke-miterlimit:4;"/>
        <path id="path3894" d="M291.788,467.347L432.543,340.298" style="fill:none;stroke:black;stroke-width:2px;stroke-linecap:butt;stroke-linejoin:miter;stroke-miterlimit:4;"/>
        <path id="path3896" d="M226.044,502.483L157.48,609.871" style="fill:none;stroke:black;stroke-width:2px;stroke-linecap:butt;stroke-linejoin:miter;stroke-miterlimit:4;"/>
        <path id="path3900" d="M192.868,492.956L130.052,503.882" style="fill:none;stroke:black;stroke-width:2px;stroke-linecap:butt;stroke-linejoin:miter;stroke-miterlimit:4;"/>
        <path id="path3904" d="M273.062,507.751L385.603,660.383" style="fill:none;stroke:black;stroke-width:2px;stroke-linecap:butt;stroke-linejoin:miter;stroke-miterlimit:4;"/>
        <path id="path3906" d="M247.249,484.496L118.162,372.402" style="fill:none;stroke:black;stroke-width:2px;stroke-linecap:butt;stroke-linejoin:miter;stroke-miterlimit:4;"/>
        <g transform="matrix(1,0,0,1,30.2449,332.501)">
            <g id="text3908">
                <g>
                    <text x="29.376px" y="0px" style="font-family:'LinLibertineO', 'Linux Libertine O';font-size:24px;">Zahndamm</text>
                    <text x="0px" y="24px" style="font-family:'LinLibertineO', 'Linux Libertine O';font-size:24px;">(<tspan x="6.576px " y="24px ">A</tspan>lv<tspan x="41.328px 52.224px " y="24px 24px ">eo</tspan>li dentales)</text>
                </g>
            </g>
        </g>
        <g id="text3914" transform="matrix(1,0,0,1,431.081,329.331)">
            <g transform="matrix(1,0,0,1,8.736,0)">
                <text x="0px" y="0px" style="font-family:'LinLibertineO', 'Linux Libertine O';font-size:24px;">harter Gaumen</text>
            </g>
            <g transform="matrix(1,0,0,1,35.76,24)">
                <text x="0px" y="0px" style="font-family:'LinLibertineO', 'Linux Libertine O';font-size:24px;">(Palatum)</text>
            </g>
        </g>
        <g id="text3914-2" transform="matrix(1,0,0,1,451.345,416.836)">
            <g transform="matrix(1,0,0,1,24.804,0)">
                <text x="0px" y="0px" style="font-family:'LinLibertineO', 'Linux Libertine O';font-size:24px;">Gaumensegel</text>
            </g>
            <g>
                <g transform="matrix(1,0,0,1,-0.36,24)">
                    <text x="0px" y="0px" style="font-family:'LinLibertineO', 'Linux Libertine O';font-size:24px;">(V</text>
                </g>
                <g transform="matrix(1,0,0,1,20.52,24)">
                    <text x="0px" y="0px" style="font-family:'LinLibertineO', 'Linux Libertine O';font-size:24px;">elum palatinum</text>
                </g>
            </g>
            <g transform="matrix(1,0,0,1,174.816,24)">
                <text x="0px" y="0px" style="font-family:'LinLibertineO', 'Linux Libertine O';font-size:24px;">)</text>
            </g>
        </g>
        <g id="text3914-2-4" transform="matrix(1,0,0,1,465.747,518.638)">
            <text x="0px" y="0px" style="font-family:'LinLibertineO', 'Linux Libertine O';font-size:24px;">Zäpfchen</text>
            <g>
                <g transform="matrix(1,0,0,1,9.924,24)">
                    <text x="0px" y="0px" style="font-family:'LinLibertineO', 'Linux Libertine O';font-size:24px;">(</text>
                </g>
                <g transform="matrix(1,0,0,1,17.364,24)">
                    <text x="0px" y="0px" style="font-family:'LinLibertineO', 'Linux Libertine O';font-size:24px;">Uvula)</text>
                </g>
            </g>
        </g>
        <g id="text3914-2-4-4" transform="matrix(1,0,0,1,397.494,654.605)">
            <g transform="matrix(1,0,0,1,9.612,0)">
                <text x="0px" y="0px" style="font-family:'LinLibertineO', 'Linux Libertine O';font-size:24px;">Zunge</text>
            </g>
            <g transform="matrix(1,0,0,1,0,24)">
                <text x="0px" y="0px" style="font-family:'LinLibertineO', 'Linux Libertine O';font-size:24px;">(Lingua)</text>
            </g>
        </g>
        <g id="text3914-2-4-7" transform="matrix(1,0,0,1,67.7245,615.833)">
            <g transform="matrix(1,0,0,1,10.212,0)">
                <text x="0px" y="0px" style="font-family:'LinLibertineO', 'Linux Libertine O';font-size:24px;">Zähne</text>
            </g>
            <g transform="matrix(1,0,0,1,0,24)">
                <text x="0px" y="0px" style="font-family:'LinLibertineO', 'Linux Libertine O';font-size:24px;">(Dentes)</text>
            </g>
        </g>
        <g id="text3914-2-4-2" transform="matrix(1,0,0,1,47.9634,501.359)">
            <g>
                <text x="0px" y="0px" style="font-family:'LinLibertineO', 'Linux Libertine O';font-size:24px;">Lipp</text>
                <g transform="matrix(1,0,0,1,44.256,0)">
                    <text x="0px" y="0px" style="font-family:'LinLibertineO', 'Linux Libertine O';font-size:24px;">en</text>
                </g>
            </g>
            <g transform="matrix(1,0,0,1,0.372,24)">
                <text x="0px" y="0px" style="font-family:'LinLibertineO', 'Linux Libertine O';font-size:24px;">(Labia)</text>
            </g>
        </g>
        <path id="path3906-7" d="M271.304,415.417L307.38,331.802" style="fill:none;stroke:black;stroke-width:2px;stroke-linecap:butt;stroke-linejoin:miter;stroke-miterlimit:4;"/>
        <g id="text3908-6" transform="matrix(1,0,0,1,243.996,292.378)">
            <g transform="matrix(1,0,0,1,8.448,0)">
                <text x="0px" y="0px" style="font-family:'LinLibertineO', 'Linux Libertine O';font-size:24px;">Nasenhöhle</text>
            </g>
            <g>
                <g transform="matrix(1,0,0,1,0,24)">
                    <text x="0px" y="0px" style="font-family:'LinLibertineO', 'Linux Libertine O';font-size:24px;">(</text>
                </g>
                <g transform="matrix(1,0,0,1,6.912,24)">
                    <text x="0px" y="0px" style="font-family:'LinLibertineO', 'Linux Libertine O';font-size:24px;">Cavitas nasi)</text>
                </g>
            </g>
        </g>
    </g>
</svg>
